X:1
T:Dziļā  pusnakts tumsā
T:Poļu koļenda mel. XVIII/XIX gs.: M. Mioduszewski, "Dodatek do Śpiewnika kościelnego", 1853 harm.: M. Celminskis
T:Oriģinālteksts no: M. Mioduszewski, "Dodatek do Śpiewnika kościelnego", 1853 Atdz. anonīms no "Rožu kronis"
T:Dziļā  pusnakts tumsā
T:(Wśród nocnej ciszy)
C:Poļu koļenda
C:mel. XVIII/XIX gs.:
C:M. Mioduszewski, "Dodatek do
C:Śpiewnika kościelnego", 1853
C:harm.: M. Celminskis
Z:Oriģinālteksts no:
Z:M. Mioduszewski,
Z:"Dodatek do
Z:Śpiewnika kościelnego", 1853
Z:Atdz. anonīms no "Rožu kronis"
%%score { ( 1 2 ) | ( 3 4 ) }
L:1/8
Q:1/4=80
M:4/4
K:Bb
V:1 treble nm="P1"
V:2 treble 
V:3 bass 
V:4 bass 
V:1
!p!"^Andante" B2 B2 c2 A2 | B4!<(! F4 | d2!<)! d2 e2 c2 |!mp! d8 | B2 B2 c2 A2 | B4 F4 | %6
w: 1. ļā pus- nakts|tum- sā|gais- ma ie- de-|gās,|de- bess pul- ku|1. sis|
w: 2. dzot gai- šas|lies- mas,|ga- ni brī- nī-|jās,|dzir- dot eņ- gļu|2. mas,|
w: 3. ga eņ- ģel’s|nā- ca,|kvē- li sta- ro-|dams,|ga- nus uz- ru-|3. ja,|
w: 4. dien Kris- tus|dzi- ma|svē- tā pil- sē-|tā.|Pes- tī- tājs un|4. bējs|
w: 5. šie de- bess|pul- ki,|Die- vu sla- vē-|jot,|zu- da ga- nu|5. cīm,|
 d2 d2 e2 c2 | d8 ||[M:2/4]!f! Bd Bd | ec AF | Bd Bd | ec!>(! A!>)!F |"^rit."!<(! BB!<)! cc | B4 |] %14
w: līk- smi pa- *|lās.|Ga- nus vi- ņi|ai- ci- nā- ja|1. ties drīz pie|Pes- tī- tā- ja,|tik- ko dzi- mu-|ša.|
w: ļo- ti iz- *|kās.|Dre- bē- da- mi|ce- ļos kri- ta,|2. se- dza ar|ro- kām se- jas,|Kun- gu pie- sau-|ca.|
w: līk- smi sa- *|dams:|“Ne- bīs- tie- ties!|Lie- lu prie- ku,|3. drīz nāks pār|vi- su tau- tu,|es jums slu- di-|nu.|
w: nā- ca pa- *|lē.|E- jiet, uz- mek-|lē- jiet Vi- ņu,|4. nu, bal- tos|au- tos tī- tu,|du- sot si- lī-|tē.”|
w: dzies- mu skan- *|not:|“Gods un sla- va|aug- stam Die- vam,|5. virs ze- mes|vi- siem ļau- dīm|tiem, kam labs ir|prāts!”|
V:2
 D2 D2 E2 E2 | (F2 E2) F4 | G2 G2 G2 F2 | F8 | B2 A2 G2 F2 | (F2!<(! E2) D4 | G2!<)! _A2 G2 F2 | %7
 F8 ||[M:2/4] FB FG | FA FF | FF GG | GG FF | FG BA | F4 |] %14
V:3
 F,2 A,2 G,2 C2 | D2 C2 B,4 | B,2 B,2 B,2 A,2 | B,8 | D2 D2 B,2 C2 | B,4 B,4 | B,2 B,2 B,2 A,2 | %7
 B,8 ||[M:2/4] DF B,B, | A,E CA, | DD DB, | CC CA, | B,D EE | D4 |] %14
V:4
 B,,2 B,,2 B,,2 B,,2 | B,,2 C,2 D,4 | G,2 F,2 E,2 F,2 | B,,8 | G,2 F,2 E,2 E,2 | D,2 C,2 B,,4 | %6
 G,2 F,2 E,2 F,2 | B,,8 ||[M:2/4] B,,C, D,E, | F,F, F,F, | B,A, G,F, | C,E, F,E, | D,G, F,F, | %13
 B,,4 |] %14

